T: Hidden Ground
M: 4/4
L: 1/8
K: Dmaj
FG{c/}AFE2 ef|+slide+ge f2ef+slide+gf|eBAB=cF A2-|A2 G/F/G/A/GFE z|
FG{c/}AFE2 ef|{a/}f+slide+g-+slide+a6|{a/}gf e6-|e6z2|
FG{c/}AFEBef|{a/}ge f2efgf|eBAB=cF JA2-|A2 G/F/G/A/GFE z|
FG{c/}AFE2ef|{a/}f+slide+g+slide+a2!slide!b4-|ag/e/{c'/}a/g/ ee4-|e6z2|
FG!slide!BG A4-|A6 Bd |!slide!e8-|e6z2|
Bdge Jf4-|f{g/}e<f e<fz ef|!slide!{a/}g2f2BdJe2|JB2AG{A/}G4|
